X:1
T:F Major Daniel Belknap, 1797
T:Anonymous Author 86. 86. (C. M.)
T:Clapboardtree Grove
T:Transcribed from Belknap's The Harmonist's Companion, 1797.
%%score [ 1 2 3 4 ]
L:1/8
M:4/4
K:F
V:1 treble nm="Treble" snm="Tr."
V:2 treble nm="Counter" snm="C."
V:3 treble-8 nm="Tenor" snm="T."
V:4 bass nm="Bass" snm="B."
V:1
 c4 | (cAFG A2) A2 | B2 c2 d2 e2 | f6 ed | c2 c2 Bc d2 | d6 f2 | f3 f c2 g2 | f2 d2 e4- | e4 c4 | %9
 (AFAB c2) B2 | (A d3) c4 | c8 |: z8 | z8 | z8 | z8 | z4 z2 c2 | B2 B2 B2 d2 | f2 f2 f2 c2 | %19
 d2 dc B2 c2 | c2 c2 c2 c2 | (B3 c d2) d2 | (f2 ed c2) c2 | c8 :| %24
V:2
"^The gentle breeze which through the grove Does pleasing pleasure bring; And birds that set upon the trees With" F4 | %1
 F6 F2 | D2 F2 F2 G2 | F6 G2 | A2 A2 F2 GA | G6 A2 | F3 G A2 G2 | A2 G2 G4- | G4 F4 | %9
"^cheer     –     ful    echoes         sing." (A3 G F2) B2 | B4 G4 | A8 |: z8 | z8 | z8 | z8 | %16
 z4 z2"^He" A2 | %17
"^orders all things by his word, He   orders   all things by his word, So  let            us    praise             the  Lord." G2 G2 G2 G2 | %18
 F2 FG A2 AG | F2 F2 F2 cB | A2 A2 A2 F2 | (G4 A2) G2 | (F2 G4) G2 | A8 :| %24
V:3
 c4 | (fdAB c2) c2 | B2 A2 f2 e2 | d6 e2 | f2 f2 dc BA | B6 A2 | c3 d c2 B2 | A2 B2 c4- | c4 c4 | %9
 (cAFG A2) B2 | (c f3) e4 | f8 |: %12
 z4"^Let   us  that  dwell around    it here  Bless and adore our God," c4 | c>d cB A2 A2 | %14
 d>c BA B2 c2 | f3 d B2 G2 | c6 A2 | d2 d2 d2 d2 | c2 c2 c2 c2 | f2 fe d2 e2 | f2 f2 f2 c2 | %21
 (d3 e f2) d2 | (c>d cB A2) G2 | F8 :| %24
V:4
 F,4 | F,6 F,2 | G,2 F,2 D,2 C,2 | D,6 C,2 | F,2 F,2 B,A, G,F, | G,6 F,2 | F,3 F, F,2 E,2 | %7
 F,2 G,2 C,4- | C,4 F,4 | F,6 G,2 | (A, B,3) C4 | F,8 |: z4 F,4 | %13
"^_________________________________________________\nClapboard Tree Grove was a forest about 2½ miles southwest of Dedham.\nIt is now represented by Clapboardtree Street in the town of Westwood." F,2 F,2 F,2 F,2 | %14
 G,2 G,2 G,2 A,2 | F,3 F, G,2 G,2 | C,6 F,2 | G,2 G,2 G,2 G,2 | A,2 F,2 F,2 F,E, | %19
 D,2 D,2 D,2 C,2 | F,2 F,2 F,2 A,2 | (G,4 F,2) G,2 | C,6 C,2 | [F,,F,]8 :| %24

